X: 45
T: Rorospols 3
M: 3/4
L: 1/8
Q: 1/4=160
P: AABB 
K: D
%%MIDI program 41
%%MIDI chordprog 24
%%MIDI gchord ghh
P:A
|:"D"F2 AF D2|"G"G2 BG E2|"A"c2 ec A2|[1"D"d2 fd A2:|[2"D"d2 d2 z2|
P:B
|:"D"F2 FD FA|"G"G2 GF ED|"A"C2 CA,CE|[1"D"F2 FE D2:|[2"D"D2 D2 z2|



